images/document.svg

<svg width="21" height="22" fill="none" xmlns="http://www.w3.org/2000/svg"><path d="M20.4589 6.60919c-.7196-.71971-1.8907-.71967-2.6106.00016-.2214.22163-1.6351 1.63648-1.8511 1.85265V3.58609c0-.49305-.192-.95656-.5406-1.30517L13.7163.540624C13.3677.191967 12.9042 0 12.4111 0H1.84583C.828041 0 0 .828041 0 1.84583V19.1556c0 1.0178.828041 1.8459 1.84583 1.8459H14.1514c1.0178 0 1.8458-.8281 1.8458-1.8459v-5.4705l4.4617-4.46549c.7214-.72135.7215-1.88899 0-2.61042zm-8.1533-5.37863c.1162 0 .3402-.02014.5406.18019l1.7403 1.74029c.1952.19529.1802.40929.1802.54063h-2.4611V1.23056zm2.4611 17.92504c0 .3393-.276.6153-.6153.6153H1.84583c-.33926 0-.61527-.276-.61527-.6153V1.84583c0-.33926.27601-.61527.61527-.61527H11.075v3.07638c0 .3398.2755.61528.6153.61528h3.0764v4.7714s-1.8153 1.81678-1.8153 1.81688l-.8698.8697c-.0675.0675-.1184.1499-.1486.2405l-.8702 2.6104c-.0737.2211-.0161.4649.1487.6297.165.165.4088.2222.6296.1486l2.6104-.8701c.0906-.0302.173-.0811.2405-.1487l.0747-.0746v4.2396zm-1.3799-6.3403l.8701.8701-.3323.3324-1.3052.435.435-1.3052.3324-.3323zm1.7401-.0002l-.8701-.8701c.4633-.4638 2.5212-2.52337 2.9576-2.96018l.8701.87013-2.9576 2.96015zm4.4617-4.46545l-.6343.6348-.8701-.87013.6345-.635c.24-.23992.6303-.23988.8701 0 .2399.23995.2412.62893-.0002.87033z" fill="#fff"/><path d="M11.6903 6.15283H3.07639c-.3398 0-.61528.27548-.61528.61528 0 .3398.27548.61528.61528.61528h8.61391c.3398 0 .6153-.27548.6153-.61528 0-.3398-.2755-.61528-.6153-.61528zM9.22917 8.61389H3.07639c-.3398 0-.61528.27548-.61528.61528 0 .3398.27548.61528.61528.61528h6.15278c.3398 0 .61528-.27548.61528-.61528 0-.3398-.27548-.61528-.61528-.61528zM9.22917 11.075H3.07639c-.3398 0-.61528.2754-.61528.6152s.27548.6153.61528.6153h6.15278c.3398 0 .61528-.2755.61528-.6153 0-.3398-.27548-.6152-.61528-.6152zM9.22917 13.5361H3.07639c-.3398 0-.61528.2755-.61528.6153 0 .3398.27548.6153.61528.6153h6.15278c.3398 0 .61528-.2755.61528-.6153 0-.3398-.27548-.6153-.61528-.6153zM11.6903 17.3098H7.99862c-.3398 0-.61528.2755-.61528.6153 0 .3398.27548.6153.61528.6153h3.69168c.3398 0 .6153-.2755.6153-.6153 0-.3398-.2755-.6153-.6153-.6153z" fill="#fff"/></svg>

<svg width="21" height="22" viewBox="0 0 21 22" fill="none" xmlns="http://www.w3.org/2000/svg">
<path d="M20.4589 6.60919C19.7393 5.88948 18.5682 5.88952 17.8483 6.60935C17.6269 6.83098 16.2132 8.24583 15.9972 8.462V3.58609C15.9972 3.09304 15.8052 2.62953 15.4566 2.28092L13.7163 0.540624C13.3677 0.191967 12.9042 0 12.4111 0H1.84583C0.828041 0 0 0.828041 0 1.84583V19.1556C0 20.1734 0.828041 21.0015 1.84583 21.0015H14.1514C15.1692 21.0015 15.9972 20.1734 15.9972 19.1556V13.6851L20.4589 9.21961C21.1803 8.49826 21.1804 7.33062 20.4589 6.60919ZM12.3056 1.23056C12.4218 1.23056 12.6458 1.21042 12.8462 1.41075L14.5865 3.15104C14.7817 3.34633 14.7667 3.56033 14.7667 3.69167H12.3056V1.23056ZM14.7667 19.1556C14.7667 19.4949 14.4907 19.7709 14.1514 19.7709H1.84583C1.50657 19.7709 1.23056 19.4949 1.23056 19.1556V1.84583C1.23056 1.50657 1.50657 1.23056 1.84583 1.23056H11.075V4.30694C11.075 4.64674 11.3505 4.92222 11.6903 4.92222H14.7667V9.69362C14.7667 9.69362 12.9514 11.5104 12.9514 11.5105L12.0816 12.3802C12.0141 12.4477 11.9632 12.5301 11.933 12.6207L11.0628 15.2311C10.9891 15.4522 11.0467 15.696 11.2115 15.8608C11.3765 16.0258 11.6203 16.083 11.8411 16.0094L14.4515 15.1393C14.5421 15.1091 14.6245 15.0582 14.692 14.9906L14.7667 14.916V19.1556ZM13.3868 12.8153L14.2569 13.6854L13.9246 14.0178L12.6194 14.4528L13.0544 13.1476L13.3868 12.8153ZM15.1269 12.8151L14.2568 11.945C14.7201 11.4812 16.778 9.42163 17.2144 8.98482L18.0845 9.85495L15.1269 12.8151ZM19.5886 8.34965L18.9543 8.98445L18.0842 8.11432L18.7187 7.47932C18.9587 7.2394 19.349 7.23944 19.5888 7.47932C19.8287 7.71927 19.83 8.10825 19.5886 8.34965Z" fill="white"/>
<path d="M11.6903 6.15283H3.07639C2.73659 6.15283 2.46111 6.42831 2.46111 6.76811C2.46111 7.10791 2.73659 7.38339 3.07639 7.38339H11.6903C12.0301 7.38339 12.3056 7.10791 12.3056 6.76811C12.3056 6.42831 12.0301 6.15283 11.6903 6.15283Z" fill="white"/>
<path d="M9.22917 8.61389H3.07639C2.73659 8.61389 2.46111 8.88937 2.46111 9.22917C2.46111 9.56897 2.73659 9.84445 3.07639 9.84445H9.22917C9.56897 9.84445 9.84445 9.56897 9.84445 9.22917C9.84445 8.88937 9.56897 8.61389 9.22917 8.61389Z" fill="white"/>
<path d="M9.22917 11.075H3.07639C2.73659 11.075 2.46111 11.3504 2.46111 11.6902C2.46111 12.03 2.73659 12.3055 3.07639 12.3055H9.22917C9.56897 12.3055 9.84445 12.03 9.84445 11.6902C9.84445 11.3504 9.56897 11.075 9.22917 11.075Z" fill="white"/>
<path d="M9.22917 13.5361H3.07639C2.73659 13.5361 2.46111 13.8116 2.46111 14.1514C2.46111 14.4912 2.73659 14.7667 3.07639 14.7667H9.22917C9.56897 14.7667 9.84445 14.4912 9.84445 14.1514C9.84445 13.8116 9.56897 13.5361 9.22917 13.5361Z" fill="white"/>
<path d="M11.6903 17.3098H7.99862C7.65882 17.3098 7.38334 17.5853 7.38334 17.9251C7.38334 18.2649 7.65882 18.5404 7.99862 18.5404H11.6903C12.0301 18.5404 12.3056 18.2649 12.3056 17.9251C12.3056 17.5853 12.0301 17.3098 11.6903 17.3098Z" fill="white"/>
</svg>
